X:306
T: Anna im Grabe (54a), S. 172
N: T0195
O: Luxemburg
S: Singendes Volk, Esch-Alzette 1937 posth.]
N: Boxhorn, mitgeteilt: hhh Heinrich Godefroid (Lehrer)
R: Liebeslieder]
M: 4/4
L: 1/8
K: A
E2 | A2c2E2A2 | C2EAA2
AA | G2A2B2cA | B2z4
E2 | d3cB2cd | e3AA2
AG | F2dBc2B2 | A2z4

